X: 7696
T: Collector's Daughter, The
R: reel
M: 4/4
K: Fmajor
|:CFAC BCAF|C2 CA GFDF|CFAC BAAB|d3 c AGFD|
CFAC BCAF|CFAF GF D2|Affe dcAF|1 DGGA BcdB:|2 DGGA Bcdf||
|:d3 c AGFD|CFAF BFAB|d3 c Affg|Tgfef dfcA|
d3 c AGFD|CFAF BFAB|Affe dcAF|1 DGGA Bcdf:|2 DGGA BcdB||

